X:1
T:Title
%%score ( 1 2 ) ( 3 4 )
L:1/8
Q:1/4=90
M:4/4
K:Ab
V:1 treble nm="Midi_20"
V:2 treble 
V:3 bass nm="Midi_20"
V:4 bass 
V:1
"^Hermon (C.M.)""^Jeremiah Clarke\n(1673-1707)" C2 | F2 G2 A2 G2 | F2 GF =E2 G2 | A2 G2 A2 B2 | %4
 c6 || c2 | e2 d2 c2 B2 | Ac BA G2 c2 | F2 G2 G3 F | F6 |] %10
V:2
 A,2 | C2 C2 C2 C2 | D2 D2 C2 C2 | F2 C2 F2 F2 | =E6 || !courtesy!_E2 | E2 E2 E2 ED | %7
 C2 F2 =E2 E2 | C2 D2 C2 B,2 | A,6 |] %10
V:3
 F,2 | F,2 =E,2 F,2 G,2 | A,2 B,2 G,2 C2 | C2 G,2 F,2 F,2 | G,6 || %5
"^1. My God, I love Thee, not because\nI hope for heaven thereby,\nNor yet because who love Thee not\nAre lost eternally.\n\n2. Thou, my Lord Jesus, Thou didst me\nUpon the cross embrace;\nFor me didst bear the nails and spear,\nAnd manifold disgrace;\n\n3. And griefs and torments numberless,\nAnd sweat of agony,\nYea, death itself, and all for one\nWho was thine enemy." A,2 | %6
 B,2 G,2 A,2 G,2 | %7
 F,2"^4. Then why, O blessed Jesus Christ,\nShould I not love Thee well?\nNot for the sake of winning heaven,\nOr of escaping hell;\n\n5. Not with the hope of gaining aught;\nNot seeking a reward;\nBut as Thyself hast loved me,\nO ever-loving Lord.\n\n6. E'en so I love Thee, and will love,\nAnd in Thy praise will sing;\nSolely because Thou art my God,\nAnd my eternal King." D2 G,2 G,2 | %8
 F,2 F,2 F,2 =E,2 | F,6 |] %10
V:4
 F,2 | A,,2 C,2 F,2 !courtesy!_E,2 | D,2 B,,2 C,2 =E,2 | F,2 _E,2 D,2 D,2 | C,6 || A,2 | %6
 G,2 E,2 A,2 E,2 | F,2 B,,2 C,2 C,2 | A,,2 B,,2 C,2 C,2 | F,,6 |] %10

